X: 144
T: No_69_Song_of_the_Pipe.krn
%%abc-version 2.0
%%abcx-abcm2ps-target-version 5.9.1 (29 Sep 2008)
%%abc-creator hum2abc beta
%%abcx-conversion-date 2020/08/10 18:54:57
%%gracespace 0 6 6
%%humdrum-veritas 1783317065
%%humdrum-veritas-data 36631437
%%linebreak <none>
%%barnumbers 0
L: 1/8
M: 2/4
%%staves {1 2}
V: 1 clef=bass
V: 2 clef=bass
K: A
[V:1] [K:clef=bass][M:2/4]CCC2 | 
[V:2] [K:clef=bass][M:2/4]G,,G,, G,,G,, | 
[V:1] C/C/CC2 | 
[V:2] G,,G,, G,,G,, | 
[V:1] ^DDC2 | 
[V:2] z4 | 
[V:1] C/C/CC2 | 
[V:2] z4 | 
[V:1] CB,A,2 ||  
[V:2] z4 ||  
[V:1] [M:3/4]B,2CB,A,2 ||  
[V:2] [M:3/4]z6 ||  
[V:1] [M:2/4]F,/F,/F,F,2 | 
[V:2] [M:2/4]z4 | 
[V:1] A,A,F,2 | 
[V:2] z4 | 
[V:1] F,/F,/F, F,E, | 
[V:2] z4 | 
[V:1] F,2F,F, | 
[V:2] z4 | 
[V:1] F,4 | 
[V:2] z4 | 
[V:1] F,4- | 
[V:2] z4 | 
[V:1] F,4 | 
[V:2] z4 | 
[V:1] CC/C/ CC | 
[V:2] z4 | 
[V:1] CB,A,2 ||  
[V:2] z4 ||  
[V:1] [M:3/4]B,2CB,A,2 ||  
[V:2] [M:3/4]z6 ||  
[V:1] [M:2/4]F,F,/F,/F,2 | 
[V:2] [M:2/4]z4 | 
[V:1] A,A,F,2 | 
[V:2] z4 | 
[V:1] F,F,/F,/ F,E, | 
[V:2] z4 | 
[V:1] F,2F,F, | 
[V:2] z4 | 
[V:1] F,4 |]  
[V:2] z4 |]  


